!!!COM: Bons, Enric Marfany
!!!CDT: 1871-1942
!!!OTL: National Anthem, Andorra
!!!ENC: Davis, Matthew J.
!!Vocal Line Only
**kern
*clefG2
*k[f#]
*G:
*M4/4
=1-
4d
=2
4g
8.g
16g
4a
4a
=3
(4.b
8a)
4g
8.b
16b
=4
4dd
4cc
4b
4g
=5
[2a
8a]
8r
8.d
16d
=6
4g
4g
4a
4a
=7
(4.b
8a
4g)
4b
=8
4dd
4cc
4b
8.a
16a
=9
2g
4g
4g
=10
4cc
8.cc
16cc
4b
4b
=11
(4.a
8b)
4a
8.a
16a
=12
4b
4g
4e
4a
=13
(4.f#
8e
4d)
4g
=14
4cc
4cc
4b
8.b
16b
=15
(4.a
8b)
4a
8.a
16a
=16
4b
4a
4b
4a
=17
2.d
4d
=18
4.g
8g
8.a
16a
8.a
16a
=19
(4.b
8a
4g
4b
=20
4dd
4cc
4b
8.g
16g
=21
2.a
4r
=22
4g
8.g
16g
4a
8.a
16a
=23
2.b
8.b
16b
=24
4ee
4dd
4cc
4b
=25
2a
4..g
32a
=26
4..b
32b
4..a
32a
=27
[4g
8g]
==28
1r
=29
1r
=30
1r
=31
1r
=32
1r
=33
1r
=34
1r
=35
1r
=36
1r
!D.C. al Fine (repeat from beginning to measure 27).
==|!
*-
